resources/img/scalable/actions/flypie-menu-system-poweroff-symbolic.svg

<?xml version="1.0" encoding="UTF-8" standalone="no"?>
<svg
   xmlns:dc="http://purl.org/dc/elements/1.1/"
   xmlns:cc="http://creativecommons.org/ns#"
   xmlns:rdf="http://www.w3.org/1999/02/22-rdf-syntax-ns#"
   xmlns:svg="http://www.w3.org/2000/svg"
   xmlns="http://www.w3.org/2000/svg"
   xmlns:sodipodi="http://sodipodi.sourceforge.net/DTD/sodipodi-0.dtd"
   xmlns:inkscape="http://www.inkscape.org/namespaces/inkscape"
   width="4.2333mm"
   height="4.2333mm"
   version="1.1"
   viewBox="0 0 4.2333 4.2333"
   id="svg12501"
   sodipodi:docname="flypie-menu-system-poweroff-symbolic.svg"
   inkscape:version="1.0.2 (e86c870879, 2021-01-15)">
  <defs
     id="defs12505" />
  <sodipodi:namedview
     pagecolor="#ffffff"
     bordercolor="#666666"
     borderopacity="1"
     objecttolerance="10"
     gridtolerance="10"
     guidetolerance="10"
     inkscape:pageopacity="0"
     inkscape:pageshadow="2"
     inkscape:window-width="1520"
     inkscape:window-height="995"
     id="namedview12503"
     showgrid="false"
     inkscape:zoom="45.937859"
     inkscape:cx="7.9999374"
     inkscape:cy="7.9999374"
     inkscape:window-x="0"
     inkscape:window-y="32"
     inkscape:window-maximized="0"
     inkscape:current-layer="svg12501"
     inkscape:document-rotation="0" />
  <metadata
     id="metadata12477">
    <rdf:RDF>
      <cc:Work
         rdf:about="">
        <dc:format>image/svg+xml</dc:format>
        <dc:type
           rdf:resource="http://purl.org/dc/dcmitype/StillImage" />
        <dc:title />
      </cc:Work>
    </rdf:RDF>
  </metadata>
  <path
     d="m 0.79038,0.25998 c -0.43973196,0 -0.79374,0.35400804 -0.79374,0.79374 v 1.85206 c 0,0.439732 0.35400804,0.79374 0.79374,0.79374 h 2.6458 c 0.439732,0 0.79374,-0.354008 0.79374,-0.79374 V 1.05372 c 0,-0.43973196 -0.354008,-0.79374 -0.79374,-0.79374 z m 0,0.52916 h 2.6458 c 0.1465773,0 0.26458,0.11800268 0.26458,0.26458 v 1.85206 c 0,0.1465773 -0.1180027,0.26458 -0.26458,0.26458 H 0.79038 C 0.64380268,3.17036 0.5258,3.0523573 0.5258,2.90578 V 1.05372 c 0,-0.14657732 0.11800268,-0.26458 0.26458,-0.26458 z"
     fill="#2e3436"
     id="path12483"
     style="stroke-width:0.26458" />
  <path
     d="M 2.11328,4.22868 C 2.90702,4.22868 3.1716,3.9641 3.1716,3.9641 H 1.05496 c 0,0 0.26458,0.26458 1.05832,0.26458 z"
     fill="#2e3436"
     id="path12485"
     style="stroke-width:0.26458" />
  <path
     style="color:#000000;font-style:normal;font-variant:normal;font-weight:normal;font-stretch:normal;font-size:medium;line-height:normal;font-family:sans-serif;font-variant-ligatures:normal;font-variant-position:normal;font-variant-caps:normal;font-variant-numeric:normal;font-variant-alternates:normal;font-variant-east-asian:normal;font-feature-settings:normal;font-variation-settings:normal;text-indent:0;text-align:start;text-decoration:none;text-decoration-line:none;text-decoration-style:solid;text-decoration-color:#000000;letter-spacing:normal;word-spacing:normal;text-transform:none;writing-mode:lr-tb;direction:ltr;text-orientation:mixed;dominant-baseline:auto;baseline-shift:baseline;text-anchor:start;white-space:normal;shape-padding:0;shape-margin:0;inline-size:0;clip-rule:nonzero;display:inline;overflow:visible;visibility:visible;isolation:auto;mix-blend-mode:normal;color-interpolation:sRGB;color-interpolation-filters:linearRGB;solid-color:#000000;solid-opacity:1;vector-effect:none;fill:#2e3436;fill-opacity:1;fill-rule:nonzero;stroke:none;stroke-linecap:butt;stroke-linejoin:miter;stroke-miterlimit:4;stroke-dasharray:none;stroke-dashoffset:0;stroke-opacity:1;color-rendering:auto;image-rendering:auto;shape-rendering:auto;text-rendering:auto;enable-background:accumulate;stop-color:#000000;stop-opacity:1;opacity:1"
     d="M 2.7207031 1.1484375 L 2.484375 1.4707031 C 2.7033757 1.6306145 2.7895498 1.898526 2.7070312 2.1425781 C 2.6245106 2.3866272 2.3867777 2.5556409 2.1113281 2.5566406 C 1.8358794 2.5576416 1.5933004 2.3874523 1.5039062 2.1425781 C 1.4145107 1.8977016 1.4940195 1.6327917 1.7070312 1.4726562 L 1.4648438 1.1523438 C 1.1161452 1.4144843 0.9780327 1.8733204 1.1269531 2.28125 C 1.2758712 2.6891759 1.6738206 2.9566751 2.1132812 2.9550781 C 2.5527433 2.9534831 2.9471606 2.6799543 3.0859375 2.2695312 C 3.2247109 1.859103 3.0743597 1.4066728 2.7207031 1.1484375 z "
     id="path12495" />
  <path
     id="rect12497"
     style="font-variation-settings:normal;fill:#2e3436;stop-color:#000000"
     d="m 2.0905303,0.98999387 c 0.1110937,0 0.20053,0.11088453 0.20053,0.24862003 v 0.7059599 c 0,0.1377355 -0.089436,0.2486201 -0.20053,0.2486201 -0.1110936,0 -0.20053,-0.1108846 -0.20053,-0.2486201 V 1.2386139 c 0,-0.1377355 0.089436,-0.24862003 0.20053,-0.24862003 z" />
</svg>

<svg xmlns="http://www.w3.org/2000/svg" width="16" height="16" viewBox="0 0 4.233 4.233"><path d="M.79.26a.792.792 0 0 0-.793.794v1.852c0 .44.354.794.793.794h2.646c.44 0 .794-.354.794-.794V1.054A.792.792 0 0 0 3.436.26zm0 .53h2.646c.147 0 .265.117.265.264v1.852a.264.264 0 0 1-.265.264H.79a.264.264 0 0 1-.264-.264V1.054C.526.907.644.789.79.789zM2.113 4.229c.794 0 1.059-.265 1.059-.265H1.055s.265.265 1.058.265z" fill="#2e3436" style="stroke-width:.26458"/><path style="color:#000;font-style:normal;font-variant:normal;font-weight:400;font-stretch:normal;font-size:medium;line-height:normal;font-family:sans-serif;font-variant-ligatures:normal;font-variant-position:normal;font-variant-caps:normal;font-variant-numeric:normal;font-variant-alternates:normal;font-variant-east-asian:normal;font-feature-settings:normal;font-variation-settings:normal;text-indent:0;text-align:start;text-decoration:none;text-decoration-line:none;text-decoration-style:solid;text-decoration-color:#000;letter-spacing:normal;word-spacing:normal;text-transform:none;writing-mode:lr-tb;direction:ltr;text-orientation:mixed;dominant-baseline:auto;baseline-shift:baseline;text-anchor:start;white-space:normal;shape-padding:0;shape-margin:0;inline-size:0;clip-rule:nonzero;display:inline;overflow:visible;visibility:visible;isolation:auto;mix-blend-mode:normal;color-interpolation:sRGB;color-interpolation-filters:linearRGB;solid-color:#000;solid-opacity:1;vector-effect:none;fill:#2e3436;fill-opacity:1;fill-rule:nonzero;stroke:none;stroke-linecap:butt;stroke-linejoin:miter;stroke-miterlimit:4;stroke-dasharray:none;stroke-dashoffset:0;stroke-opacity:1;color-rendering:auto;image-rendering:auto;shape-rendering:auto;text-rendering:auto;enable-background:accumulate;stop-color:#000;stop-opacity:1;opacity:1" d="m2.72 1.148-.236.323c.22.16.306.428.223.672a.624.624 0 0 1-.596.414.643.643 0 0 1-.607-.414.58.58 0 0 1 .203-.67l-.242-.32a.99.99 0 0 0-.338 1.128c.149.408.547.676.986.674.44-.002.834-.275.973-.685a.996.996 0 0 0-.365-1.122z"/><path style="font-variation-settings:normal;fill:#2e3436;stop-color:#000" d="M2.09.99c.112 0 .201.11.201.249v.706c0 .137-.09.248-.2.248-.112 0-.201-.11-.201-.248v-.706c0-.138.09-.249.2-.249z"/></svg>
